RestoDelMundo/Paises Bajos/Otras Categorias/Maastricht Vv4.svg

<svg xmlns="http://www.w3.org/2000/svg" viewBox="0 0 612 792"><path fill="#fff" d="M493.147 113.39H109.628v466.824c.006 33.741 27.54 61.199 61.377 61.21h81.452c16.103.316 35.254 10.382 44.589 23.447l.533.741 9.919 13.778 9.922-13.777.508-.705c9.361-13.103 28.514-23.168 44.616-23.484h81.447c33.841-.011 61.375-27.469 61.381-61.208V113.39z"/><path fill="#f04e50" d="M121.853 125.614v454.599c.005 27.047 22.007 48.977 49.156 48.985h81.557c20.428.35 43.115 12.731 54.427 28.564l.508.705.508-.705c11.313-15.833 33.999-28.215 54.428-28.564h81.556c27.149-.009 49.151-21.938 49.156-48.985V125.614z"/><path fill="#fff" d="M197.422 541.43c7.072-.864 7.644-3.446 7.644-10.227v-32.49c0-6.785-.572-9.265-7.644-10.129v-5.832h25.802l13.473 43.29 14.815-43.29h24.841v5.636c-7.072.864-7.551 3.446-7.551 10.227v32.683c0 6.785.479 9.363 7.551 10.228v5.635h-28.57v-5.729c7.162-.77 7.743-3.349 7.743-10.227V491.55l-18.83 55.611h-6.499l-17.393-55.522v39.659c0 6.785.578 9.363 7.645 10.228v5.635h-23.028zM293.067 499.384c-2.199-6.024-3.536-9.843-9.839-10.989v-5.639h27.997v5.639h-.572c-4.588 0-6.594 1.053-6.594 3.823 0 .854.381 1.906.855 3.339l13.575 38.13 13.092-34.594c.76-2.001 1.719-3.916 1.719-6.209 0-2.39-2.391-4.108-6.975-4.489v-5.639h22.166v5.639c-6.113 2.1-7.838 7.449-10.797 14.905l-17.49 44.722h-8.979zM362.152 499.384c-2.195-6.024-3.529-9.843-9.84-10.989v-5.639h28v5.639h-.576c-4.588 0-6.594 1.053-6.594 3.823 0 .854.379 1.906.857 3.339l13.568 38.13 13.096-34.594c.764-2.001 1.725-3.916 1.725-6.209 0-2.39-2.391-4.108-6.982-4.489v-5.639h22.172v5.639c-6.117 2.1-7.838 7.449-10.795 14.905l-17.492 44.722h-8.978zM198.658 578.892c1.902-.232 2.057-.933 2.057-2.763v-8.756c0-1.83-.154-2.496-2.057-2.729v-1.572h6.952l3.634 11.667 3.993-11.667h6.696v1.521c-1.907.231-2.035.924-2.035 2.754v8.812c0 1.83.128 2.526 2.035 2.759v1.517h-7.701v-1.543c1.938-.206 2.091-.902 2.091-2.763V565.44l-5.079 14.994h-1.753l-4.686-14.968v10.692c0 1.83.15 2.526 2.062 2.759v1.517h-6.208v-1.542M236.62 572.247l-2.42-6.417-2.629 6.417zm-11.745 6.645c1.39-.206 1.903-.852 2.472-2.168l5.93-13.651h3.087l5.771 14.016c.462 1.132 1.005 1.624 2.343 1.645v1.702h-7.961v-1.517h.363c1.159 0 1.749-.339 1.749-1.01 0-.227-.077-.539-.205-.872l-1.159-2.989h-6.418l-1.005 2.497q-.308.737-.308 1.082c0 .799.568 1.034 1.938 1.292v1.517h-6.598v-1.544zM259.93 572.247l-2.424-6.417-2.625 6.417zm-11.749 6.645c1.395-.206 1.911-.852 2.476-2.168l5.926-13.651h3.091l5.772 14.016c.466 1.132 1.005 1.624 2.348 1.645v1.702h-7.966v-1.517h.363c1.159 0 1.749-.339 1.749-1.01 0-.227-.077-.539-.205-.872l-1.159-2.989h-6.414l-1.004 2.497c-.21.492-.308.852-.308 1.082 0 .799.564 1.034 1.933 1.292v1.517h-6.602zM274.689 580.435l-1.851-6.314 1.467-.462c1.542 3.396 4.142 5.255 6.9 5.255 2.245 0 3.634-1.133 3.634-2.835 0-.615-.23-1.154-.641-1.591-.954-.982-2.548-1.162-4.742-1.732-3.861-1.03-5.823-2.057-5.823-4.844 0-2.958 2.5-5.229 5.899-5.229 1.313 0 2.728.386 4.302 1.159l.411-.773h1.317l1.548 5.104-1.395.44c-1.723-2.685-3.685-4.027-5.922-4.027-1.757 0-2.89.984-2.89 2.275 0 .565.21 1.052.621 1.437.876.804 2.188.881 3.788 1.291 2.599.667 4.25 1.215 4.968 1.753 1.24.949 1.855 2.112 1.855 3.554 0 3.244-2.881 5.93-7.003 5.93-1.6 0-3.121-.467-4.639-1.343l-.414.953zM298.313 578.892c1.933-.232 2.06-.933 2.06-2.763v-9.633c0-1.132-.077-1.645-.774-1.645-1.445 0-3.271 1.214-4.587 3.557l-1.364-.414 1.728-4.921h13.523l1.732 4.921-1.369.414c-1.313-2.343-3.146-3.557-4.511-3.557-.774 0-.821.514-.821 1.645v9.663c0 1.881.252 2.553 2.082 2.759v1.517h-7.7zM323.478 570.931c3.275 0 4.715-.805 4.715-3.092 0-2.035-1.291-2.962-3.967-2.962-1.934 0-2.473.358-2.473 1.854v4.148c.616.052 1.182.052 1.725.052m-7.367 7.961c1.9-.232 2.059-.933 2.059-2.763v-8.756c0-1.83-.158-2.496-2.059-2.729v-1.572h8.551c2.348 0 4.049.103 5.309.846 1.314.778 2.012 2.04 2.012 3.635 0 2.424-1.42 4.049-4.199 4.772l2.678 3.732c.846 1.159 1.496 2.292 3.396 2.861v1.517h-4.635l-5.484-7.752h-1.984v3.477c0 1.83.15 2.526 2.063 2.759v1.517h-7.705v-1.544zM338.648 578.892c1.906-.232 2.033-.933 2.033-2.763v-8.756c0-1.83-.127-2.496-2.033-2.729v-1.572h7.676v1.521c-1.904.231-2.059.924-2.059 2.754v8.812c0 1.83.154 2.526 2.059 2.759v1.517h-7.676zM368.943 576.364c-2.033 3.096-4.326 4.486-7.654 4.486-2.494 0-4.658-.898-6.309-2.605-1.6-1.651-2.395-3.707-2.395-6.179 0-2.735.926-5.105 2.445-6.73 1.572-1.667 3.789-2.651 6.027-2.651 1.422 0 2.81.438 4.25 1.287l.6-.901h1.287l1.672 5.926-1.574.462c-1.723-3.271-3.502-4.866-5.824-4.866-3.059 0-4.971 2.549-4.971 7.294 0 4.528 2.035 7.107 5.207 7.107 2.373 0 4.25-1.214 5.9-3.732zM375.275 578.892c1.91-.232 2.06-.933 2.06-2.763v-8.756c0-1.83-.15-2.496-2.06-2.729v-1.572h7.705v1.521c-1.908.231-2.061.924-2.061 2.754v2.655h7.627v-2.655c0-1.83-.154-2.523-2.065-2.754v-1.521h7.703v1.572c-1.906.232-2.064.898-2.064 2.729v8.756c0 1.83.158 2.531 2.064 2.763v1.543h-7.703v-1.517c1.91-.232 2.065-.929 2.065-2.759v-4.434h-7.627v4.434c0 1.83.152 2.526 2.061 2.759v1.517h-7.705zM404.383 578.892c1.93-.232 2.063-.933 2.063-2.763v-9.633c0-1.132-.082-1.645-.775-1.645-1.439 0-3.27 1.214-4.584 3.557l-1.367-.414 1.727-4.921h13.529l1.723 4.921-1.363.414c-1.318-2.343-3.147-3.557-4.51-3.557-.775 0-.828.514-.828 1.645v9.663c0 1.881.264 2.553 2.092 2.759v1.517h-7.705v-1.543M214.015 440.731 301.87 319.77l-76.371 24.791zM159.866 265.502l142.324 46.21-47.232-65.024zM258.075 243.808l47.284 65.095V159.17zM400.98 440.731 313.127 319.77l76.369 24.791zM455.135 265.502l-142.325 46.21 47.237-65.024zM268.879 372.671v47.119l1.993-.924v-48.938zM296.042 335.303v71.942l1.992-.924v-73.758zM255.296 391.355v34.711l1.993-.92v-36.532zM262.094 382.009v40.919l1.992-.923v-42.737zM248.507 400.69v28.51l1.987-.919v-30.326zM282.463 353.985v59.529l1.992-.916v-61.353zM228.133 428.717v9.897l1.992-.926v-11.715zM221.348 438.055v3.694l1.988-.92v-5.51zM234.932 419.38v16.093l1.988-.915v-17.916zM241.717 410.033v22.301l1.992-.914v-24.128zM289.256 344.645v65.734l1.989-.919v-67.556zM275.673 363.323v53.328l1.989-.915v-55.145zM303.11 325.574v78.401l1.988-.915v-80.222zM236.92 336.436v-41.409l-1.988-.643v42.699zM194.181 281.177v27.113l1.988 2.145V281.82zM243.713 334.225v-36.99l-1.992-.649v38.287zM187.392 278.973v21.995l1.988 2.146v-23.498zM200.979 283.375v32.235l1.989 2.143v-33.736zM230.125 338.645v-45.82l-1.992-.644v47.111zM173.813 274.568v11.756l1.992 2.145v-13.257zM167.027 272.367v6.638l1.984 2.143v-8.138zM160.229 270.164v1.519l1.992 2.146v-3.016zM207.765 285.577v37.353l1.992 2.145v-38.851zM223.336 290.628l-1.988-.644v47.595l1.988 2.145zM180.602 276.771v16.877l1.989 2.146v-18.38zM250.499 332.015v-32.582l-1.988-.643v33.873zM257.289 329.804V301.63l-1.993-.643v29.465zM277.662 323.175v-14.939l-1.989-.643v16.23zM270.872 325.386v-19.347l-1.993-.648v20.643zM284.451 320.965v-10.523l-1.992-.648v11.819zM264.086 327.592v-23.755l-1.992-.648v25.053zM298.034 316.542v-1.697l-1.992-.651v2.995zM214.555 287.778v42.474l1.992 2.147v-43.977zM291.241 318.752v-6.111l-1.992-.645v7.406zM311.895 163.201l-1.993-3.563v148.898l1.993-2.737zM318.685 296.451V175.358l-1.988-3.563v127.396zM325.475 287.103v-99.595l-1.989-3.554v105.884zM352.637 249.708v-13.57l-1.992-3.568v19.886zM339.063 268.403v-56.574l-1.995-3.568v62.889zM332.264 277.756v-78.089l-1.989-3.559v84.389zM345.846 259.057v-35.079l-1.991-3.563v41.382zM330.275 350.872v61.598l1.989.916v-59.777zM323.486 341.533v67.799l1.989.923v-65.987zM343.859 369.556v49.19l1.993.92v-47.369zM357.434 388.238v36.776l1.998.924v-34.959zM309.902 322.846v80.214l1.993.918v-78.396zM377.807 416.263v18.166l1.992.92v-16.346zM391.391 440.705l1.992.925v-3.942l-1.992-2.738zM384.6 425.604v11.963l1.994.919V428.35zM337.064 360.215v55.393l1.995.923v-53.576zM364.223 397.583v30.569l1.992.924v-28.753zM371.021 406.92v24.371l1.993.924v-22.55zM350.645 378.896v42.985l1.992.919v-41.159zM316.697 332.19v74.008l1.988.914v-72.185zM373.014 334.785v-38.112l-1.993.644v36.821zM386.594 339.208V292.27l-1.994.647v45.644zM379.799 336.998v-42.526l-1.992.647v41.23zM343.859 306.126v19.172l1.993.648v-20.467zM391.391 290.711v49.297l1.992-2.144v-47.796zM404.973 286.311v39.058l1.99-2.142v-37.559zM398.185 288.514v44.174l1.991-2.144v-42.678zM366.219 332.575v-33.702l-1.987.648v32.406zM432.137 277.501v18.582l1.988-2.146v-17.079zM425.346 279.704v23.699l1.994-2.144V279.06zM445.715 273.102v8.34l1.994-2.145v-6.838zM411.76 284.11v33.938l1.986-2.145v-32.444zM438.926 275.3v13.464l1.992-2.151v-11.957zM359.432 330.365v-29.29l-1.998.648v27.994zM330.275 310.526v10.351l1.989.644v-11.639zM452.504 270.9v3.221l1.99-2.143v-1.722zM418.553 281.908v28.815l1.992-2.144v-27.321zM337.064 308.329v14.759l1.995.647v-16.054zM316.697 314.932v1.522l1.988.648v-2.816zM350.645 327.504l1.992.65v-24.878l-1.992.648zM323.486 312.728v5.937l1.989.65v-7.231z"/></svg>

<svg enable-background="new 0 0 612 792" viewBox="0 0 612 792" xmlns="http://www.w3.org/2000/svg"><path d="M 493.147 113.39 H 121.853 h -12.225 v 12.225 v 454.599 c .006 33.741 27.54 61.199 61.377 61.21 h 81.452 c 16.103 .316 35.254 10.382 44.589 23.447 l .533 .741 l 9.919 13.778 l 9.922 -13.777 l .508 -.705 c 9.361 -13.103 28.514 -23.168 44.616 -23.484 h 81.447 c 33.841 -.011 61.375 -27.469 61.381 -61.208 V 125.614 V 113.39 H 493.147 z" fill="#fff"/><path d="M 121.853 125.614 v 454.599 c .005 27.047 22.007 48.977 49.156 48.985 h 81.557 c 20.428 .35 43.115 12.731 54.427 28.564 l .508 .705 l .508 -.705 c 11.313 -15.833 33.999 -28.215 54.428 -28.564 h 81.556 c 27.149 -.009 49.151 -21.938 49.156 -48.985 V 125.614 H 121.853 z" fill="#f04e50"/><path d="M 197.422 541.43 c 7.072 -.864 7.644 -3.446 7.644 -10.227 v -32.49 c 0 -6.785 -.572 -9.265 -7.644 -10.129 v -5.832 h 25.802 l 13.473 43.29 l 14.815 -43.29 h 24.841 v 5.636 c -7.072 .864 -7.551 3.446 -7.551 10.227 v 32.683 c 0 6.785 .479 9.363 7.551 10.228 v 5.635 h -28.57 v -5.729 c 7.162 -.77 7.743 -3.349 7.743 -10.227 v -39.655 l -18.83 55.611 h -6.499 l -17.393 -55.522 v 39.659 c 0 6.785 .578 9.363 7.645 10.228 v 5.635 h -23.028 V 541.43" fill="#fff"/><path d="M 293.067 499.384 c -2.199 -6.024 -3.536 -9.843 -9.839 -10.989 v -5.639 h 27.997 v 5.639 c -.193 0 -.381 0 -.572 0 c -4.588 0 -6.594 1.053 -6.594 3.823 c 0 .854 .381 1.906 .855 3.339 l 13.575 38.13 l 13.092 -34.594 c .76 -2.001 1.719 -3.916 1.719 -6.209 c 0 -2.39 -2.391 -4.108 -6.975 -4.489 v -5.639 h 22.166 v 5.639 c -6.113 2.1 -7.838 7.449 -10.797 14.905 l -17.49 44.722 h -8.979 L 293.067 499.384" fill="#fff"/><path d="M 362.152 499.384 c -2.195 -6.024 -3.529 -9.843 -9.84 -10.989 v -5.639 h 28 v 5.639 c -.193 0 -.385 0 -.576 0 c -4.588 0 -6.594 1.053 -6.594 3.823 c 0 .854 .379 1.906 .857 3.339 l 13.568 38.13 l 13.096 -34.594 c .764 -2.001 1.725 -3.916 1.725 -6.209 c 0 -2.39 -2.391 -4.108 -6.982 -4.489 v -5.639 h 22.172 v 5.639 c -6.117 2.1 -7.838 7.449 -10.795 14.905 l -17.492 44.722 h -8.978 L 362.152 499.384" fill="#fff"/><path d="M 198.658 578.892 c 1.902 -.232 2.057 -.933 2.057 -2.763 v -8.756 c 0 -1.83 -.154 -2.496 -2.057 -2.729 v -1.572 h 6.952 l 3.634 11.667 l 3.993 -11.667 h 6.696 v 1.521 c -1.907 .231 -2.035 .924 -2.035 2.754 v 8.812 c 0 1.83 .128 2.526 2.035 2.759 v 1.517 h -7.701 v -1.543 c 1.938 -.206 2.091 -.902 2.091 -2.763 V 565.44 l -5.079 14.994 h -1.753 l -4.686 -14.968 v 10.692 c 0 1.83 .15 2.526 2.062 2.759 v 1.517 h -6.208 V 578.892" fill="#fff"/><path d="M 236.62 572.247 l -2.42 -6.417 l -2.629 6.417 H 236.62 M 224.875 578.892 c 1.39 -.206 1.903 -.852 2.472 -2.168 l 5.93 -13.651 h 3.087 l 5.771 14.016 c .462 1.132 1.005 1.624 2.343 1.645 v 1.702 h -7.961 v -1.517 c .129 0 .235 0 .363 0 c 1.159 0 1.749 -.339 1.749 -1.01 c 0 -.227 -.077 -.539 -.205 -.872 l -1.159 -2.989 h -6.418 l -1.005 2.497 c -.205 .492 -.308 .852 -.308 1.082 c 0 .799 .568 1.034 1.938 1.292 v 1.517 h -6.598 V 578.892 z" fill="#fff"/><path d="M 259.93 572.247 l -2.424 -6.417 l -2.625 6.417 H 259.93 M 248.181 578.892 c 1.395 -.206 1.911 -.852 2.476 -2.168 l 5.926 -13.651 h 3.091 l 5.772 14.016 c .466 1.132 1.005 1.624 2.348 1.645 v 1.702 h -7.966 v -1.517 c .129 0 .235 0 .363 0 c 1.159 0 1.749 -.339 1.749 -1.01 c 0 -.227 -.077 -.539 -.205 -.872 l -1.159 -2.989 h -6.414 l -1.004 2.497 c -.21 .492 -.308 .852 -.308 1.082 c 0 .799 .564 1.034 1.933 1.292 v 1.517 h -6.602 V 578.892 z" fill="#fff"/><path d="M 274.689 580.435 l -1.851 -6.314 l 1.467 -.462 c 1.542 3.396 4.142 5.255 6.9 5.255 c 2.245 0 3.634 -1.133 3.634 -2.835 c 0 -.615 -.23 -1.154 -.641 -1.591 c -.954 -.982 -2.548 -1.162 -4.742 -1.732 c -3.861 -1.03 -5.823 -2.057 -5.823 -4.844 c 0 -2.958 2.5 -5.229 5.899 -5.229 c 1.313 0 2.728 .386 4.302 1.159 l .411 -.773 h 1.317 l 1.548 5.104 l -1.395 .44 c -1.723 -2.685 -3.685 -4.027 -5.922 -4.027 c -1.757 0 -2.89 .984 -2.89 2.275 c 0 .565 .21 1.052 .621 1.437 c .876 .804 2.188 .881 3.788 1.291 c 2.599 .667 4.25 1.215 4.968 1.753 c 1.24 .949 1.855 2.112 1.855 3.554 c 0 3.244 -2.881 5.93 -7.003 5.93 c -1.6 0 -3.121 -.467 -4.639 -1.343 l -.414 .953 H 274.689" fill="#fff"/><path d="M 298.313 578.892 c 1.933 -.232 2.06 -.933 2.06 -2.763 v -9.633 c 0 -1.132 -.077 -1.645 -.774 -1.645 c -1.445 0 -3.271 1.214 -4.587 3.557 l -1.364 -.414 l 1.728 -4.921 h 13.523 l 1.732 4.921 l -1.369 .414 c -1.313 -2.343 -3.146 -3.557 -4.511 -3.557 c -.774 0 -.821 .514 -.821 1.645 v 9.663 c 0 1.881 .252 2.553 2.082 2.759 v 1.517 h -7.7 V 578.892" fill="#fff"/><path d="M 323.478 570.931 c 3.275 0 4.715 -.805 4.715 -3.092 c 0 -2.035 -1.291 -2.962 -3.967 -2.962 c -1.934 0 -2.473 .358 -2.473 1.854 v 4.148 C 322.369 570.931 322.935 570.931 323.478 570.931 M 316.111 578.892 c 1.9 -.232 2.059 -.933 2.059 -2.763 v -8.756 c 0 -1.83 -.158 -2.496 -2.059 -2.729 v -1.572 h 8.551 c 2.348 0 4.049 .103 5.309 .846 c 1.314 .778 2.012 2.04 2.012 3.635 c 0 2.424 -1.42 4.049 -4.199 4.772 l 2.678 3.732 c .846 1.159 1.496 2.292 3.396 2.861 v 1.517 h -4.635 l -5.484 -7.752 h -1.984 v 3.477 c 0 1.83 .15 2.526 2.063 2.759 v 1.517 h -7.705 V 578.892 z" fill="#fff"/><path d="M 338.648 578.892 c 1.906 -.232 2.033 -.933 2.033 -2.763 v -8.756 c 0 -1.83 -.127 -2.496 -2.033 -2.729 v -1.572 h 7.676 v 1.521 c -1.904 .231 -2.059 .924 -2.059 2.754 v 8.812 c 0 1.83 .154 2.526 2.059 2.759 v 1.517 h -7.676 V 578.892" fill="#fff"/><path d="M 368.943 576.364 c -2.033 3.096 -4.326 4.486 -7.654 4.486 c -2.494 0 -4.658 -.898 -6.309 -2.605 c -1.6 -1.651 -2.395 -3.707 -2.395 -6.179 c 0 -2.735 .926 -5.105 2.445 -6.73 c 1.572 -1.667 3.789 -2.651 6.027 -2.651 c 1.422 0 2.81 .438 4.25 1.287 l .6 -.901 h 1.287 l 1.672 5.926 l -1.574 .462 c -1.723 -3.271 -3.502 -4.866 -5.824 -4.866 c -3.059 0 -4.971 2.549 -4.971 7.294 c 0 4.528 2.035 7.107 5.207 7.107 c 2.373 0 4.25 -1.214 5.9 -3.732 L 368.943 576.364" fill="#fff"/><path d="M 375.275 578.892 c 1.91 -.232 2.06 -.933 2.06 -2.763 v -8.756 c 0 -1.83 -.15 -2.496 -2.06 -2.729 v -1.572 h 7.705 v 1.521 c -1.908 .231 -2.061 .924 -2.061 2.754 v 2.655 h 7.627 v -2.655 c 0 -1.83 -.154 -2.523 -2.065 -2.754 v -1.521 h 7.703 v 1.572 c -1.906 .232 -2.064 .898 -2.064 2.729 v 8.756 c 0 1.83 .158 2.531 2.064 2.763 v 1.543 h -7.703 v -1.517 c 1.91 -.232 2.065 -.929 2.065 -2.759 v -4.434 h -7.627 v 4.434 c 0 1.83 .152 2.526 2.061 2.759 v 1.517 h -7.705 V 578.892" fill="#fff"/><path d="M 404.383 578.892 c 1.93 -.232 2.063 -.933 2.063 -2.763 v -9.633 c 0 -1.132 -.082 -1.645 -.775 -1.645 c -1.439 0 -3.27 1.214 -4.584 3.557 l -1.367 -.414 l 1.727 -4.921 h 13.529 l 1.723 4.921 l -1.363 .414 c -1.318 -2.343 -3.147 -3.557 -4.51 -3.557 c -.775 0 -.828 .514 -.828 1.645 v 9.663 c 0 1.881 .264 2.553 2.092 2.759 v 1.517 h -7.705 V 578.892" fill="#fff"/><path d="M 214.015 440.731 L 301.87 319.77 L 225.499 344.561 L 214.015 440.731" fill="#fff"/><path d="M 159.866 265.502 L 302.19 311.712 L 254.958 246.688 L 159.866 265.502" fill="#fff"/><path d="M 258.075 243.808 L 305.359 308.903 L 305.359 159.17 L 258.075 243.808" fill="#fff"/><path d="M 400.98 440.731 L 313.127 319.77 L 389.496 344.561 L 400.98 440.731" fill="#fff"/><path d="M 455.135 265.502 L 312.81 311.712 L 360.047 246.688 L 455.135 265.502" fill="#fff"/><path d="M 268.879 372.671 L 268.879 419.79 L 270.872 418.866 L 270.872 369.928 L 268.879 372.671" fill="#fff"/><path d="M 296.042 335.303 L 296.042 407.245 L 298.034 406.321 L 298.034 332.563 L 296.042 335.303" fill="#fff"/><path d="M 255.296 391.355 L 255.296 426.066 L 257.289 425.146 L 257.289 388.614 L 255.296 391.355" fill="#fff"/><path d="M 262.094 382.009 L 262.094 422.928 L 264.086 422.005 L 264.086 379.268 L 262.094 382.009" fill="#fff"/><path d="M 248.507 400.69 L 248.507 429.2 L 250.494 428.281 L 250.494 397.955 L 248.507 400.69" fill="#fff"/><path d="M 282.463 353.985 L 282.463 413.514 L 284.455 412.598 L 284.455 351.245 L 282.463 353.985" fill="#fff"/><path d="M 228.133 428.717 L 228.133 438.614 L 230.125 437.688 L 230.125 425.973 L 228.133 428.717" fill="#fff"/><path d="M 221.348 438.055 L 221.348 441.749 L 223.336 440.829 L 223.336 435.319 L 221.348 438.055" fill="#fff"/><path d="M 234.932 419.38 L 234.932 435.473 L 236.92 434.558 L 236.92 416.642 L 234.932 419.38" fill="#fff"/><path d="M 241.717 410.033 L 241.717 432.334 L 243.709 431.42 L 243.709 407.292 L 241.717 410.033" fill="#fff"/><path d="M 289.256 344.645 L 289.256 410.379 L 291.245 409.46 L 291.245 341.904 L 289.256 344.645" fill="#fff"/><path d="M 275.673 363.323 L 275.673 416.651 L 277.662 415.736 L 277.662 360.591 L 275.673 363.323" fill="#fff"/><path d="M 303.11 325.574 L 303.11 403.975 L 305.098 403.06 L 305.098 322.838 L 303.11 325.574" fill="#fff"/><path d="M 236.92 336.436 L 236.92 295.027 L 234.932 294.384 L 234.932 337.083 L 236.92 336.436" fill="#fff"/><path d="M 194.181 281.177 L 194.181 308.29 L 196.169 310.435 L 196.169 281.82 L 194.181 281.177" fill="#fff"/><path d="M 243.713 334.225 L 243.713 297.235 L 241.721 296.586 L 241.721 334.873 L 243.713 334.225" fill="#fff"/><path d="M 187.392 278.973 L 187.392 300.968 L 189.38 303.114 L 189.38 279.616 L 187.392 278.973" fill="#fff"/><path d="M 200.979 283.375 L 200.979 315.61 L 202.968 317.753 L 202.968 284.017 L 200.979 283.375" fill="#fff"/><path d="M 230.125 338.645 L 230.125 292.825 L 228.133 292.181 L 228.133 339.292 L 230.125 338.645" fill="#fff"/><path d="M 173.813 274.568 L 173.813 286.324 L 175.805 288.469 L 175.805 275.212 L 173.813 274.568" fill="#fff"/><path d="M 167.027 272.367 L 167.027 279.005 L 169.011 281.148 L 169.011 273.01 L 167.027 272.367" fill="#fff"/><path d="M 160.229 270.164 L 160.229 271.683 L 162.221 273.829 L 162.221 270.813 L 160.229 270.164" fill="#fff"/><path d="M 207.765 285.577 L 207.765 322.93 L 209.757 325.075 L 209.757 286.224 L 207.765 285.577" fill="#fff"/><path d="M 223.336 290.628 L 221.348 289.984 L 221.348 337.579 L 223.336 339.724 L 223.336 290.628" fill="#fff"/><path d="M 180.602 276.771 L 180.602 293.648 L 182.591 295.794 L 182.591 277.414 L 180.602 276.771" fill="#fff"/><path d="M 250.499 332.015 L 250.499 299.433 L 248.511 298.79 L 248.511 332.663 L 250.499 332.015" fill="#fff"/><path d="M 257.289 329.804 L 257.289 301.63 L 255.296 300.987 L 255.296 330.452 L 257.289 329.804" fill="#fff"/><path d="M 277.662 323.175 L 277.662 308.236 L 275.673 307.593 L 275.673 323.823 L 277.662 323.175" fill="#fff"/><path d="M 270.872 325.386 L 270.872 306.039 L 268.879 305.391 L 268.879 326.034 L 270.872 325.386" fill="#fff"/><path d="M 284.451 320.965 L 284.451 310.442 L 282.459 309.794 L 282.459 321.613 L 284.451 320.965" fill="#fff"/><path d="M 264.086 327.592 L 264.086 303.837 L 262.094 303.189 L 262.094 328.242 L 264.086 327.592" fill="#fff"/><path d="M 298.034 316.542 L 298.034 314.845 L 296.042 314.194 L 296.042 317.189 L 298.034 316.542" fill="#fff"/><path d="M 214.555 287.778 L 214.555 330.252 L 216.547 332.399 L 216.547 288.422 L 214.555 287.778" fill="#fff"/><path d="M 291.241 318.752 L 291.241 312.641 L 289.249 311.996 L 289.249 319.402 L 291.241 318.752" fill="#fff"/><path d="M 311.895 163.201 L 309.902 159.638 L 309.902 308.536 L 311.895 305.799 L 311.895 163.201" fill="#fff"/><path d="M 318.685 296.451 L 318.685 175.358 L 316.697 171.795 L 316.697 299.191 L 318.685 296.451" fill="#fff"/><path d="M 325.475 287.103 L 325.475 187.508 L 323.486 183.954 L 323.486 289.838 L 325.475 287.103" fill="#fff"/><path d="M 352.637 249.708 L 352.637 236.138 L 350.645 232.57 L 350.645 252.456 L 352.637 249.708" fill="#fff"/><path d="M 339.063 268.403 L 339.063 211.829 L 337.068 208.261 L 337.068 271.15 L 339.063 268.403" fill="#fff"/><path d="M 332.264 277.756 L 332.264 199.667 L 330.275 196.108 L 330.275 280.497 L 332.264 277.756" fill="#fff"/><path d="M 345.846 259.057 L 345.846 223.978 L 343.855 220.415 L 343.855 261.797 L 345.846 259.057" fill="#fff"/><path d="M 330.275 350.872 L 330.275 412.47 L 332.264 413.386 L 332.264 353.609 L 330.275 350.872" fill="#fff"/><path d="M 323.486 341.533 L 323.486 409.332 L 325.475 410.255 L 325.475 344.268 L 323.486 341.533" fill="#fff"/><path d="M 343.859 369.556 L 343.859 418.746 L 345.852 419.666 L 345.852 372.297 L 343.859 369.556" fill="#fff"/><path d="M 357.434 388.238 L 357.434 425.014 L 359.432 425.938 L 359.432 390.979 L 357.434 388.238" fill="#fff"/><path d="M 309.902 322.846 L 309.902 403.06 L 311.895 403.978 L 311.895 325.582 L 309.902 322.846" fill="#fff"/><path d="M 377.807 416.263 L 377.807 434.429 L 379.799 435.349 L 379.799 419.003 L 377.807 416.263" fill="#fff"/><path d="M 391.391 440.705 L 393.383 441.63 L 393.383 437.688 L 391.391 434.95 L 391.391 440.705" fill="#fff"/><path d="M 384.6 425.604 L 384.6 437.567 L 386.594 438.486 L 386.594 428.35 L 384.6 425.604" fill="#fff"/><path d="M 337.064 360.215 L 337.064 415.608 L 339.059 416.531 L 339.059 362.955 L 337.064 360.215" fill="#fff"/><path d="M 364.223 397.583 L 364.223 428.152 L 366.215 429.076 L 366.215 400.323 L 364.223 397.583" fill="#fff"/><path d="M 371.021 406.92 L 371.021 431.291 L 373.014 432.215 L 373.014 409.665 L 371.021 406.92" fill="#fff"/><path d="M 350.645 378.896 L 350.645 421.881 L 352.637 422.8 L 352.637 381.641 L 350.645 378.896" fill="#fff"/><path d="M 316.697 332.19 L 316.697 406.198 L 318.685 407.112 L 318.685 334.927 L 316.697 332.19" fill="#fff"/><path d="M 373.014 334.785 L 373.014 296.673 L 371.021 297.317 L 371.021 334.138 L 373.014 334.785" fill="#fff"/><path d="M 386.594 339.208 L 386.594 292.27 L 384.6 292.917 L 384.6 338.561 L 386.594 339.208" fill="#fff"/><path d="M 379.799 336.998 L 379.799 294.472 L 377.807 295.119 L 377.807 336.349 L 379.799 336.998" fill="#fff"/><path d="M 343.859 306.126 L 343.859 325.298 L 345.852 325.946 L 345.852 305.479 L 343.859 306.126" fill="#fff"/><path d="M 391.391 290.711 L 391.391 340.008 L 393.383 337.864 L 393.383 290.068 L 391.391 290.711" fill="#fff"/><path d="M 404.973 286.311 L 404.973 325.369 L 406.963 323.227 L 406.963 285.668 L 404.973 286.311" fill="#fff"/><path d="M 398.185 288.514 L 398.185 332.688 L 400.176 330.544 L 400.176 287.866 L 398.185 288.514" fill="#fff"/><path d="M 366.219 332.575 L 366.219 298.873 L 364.232 299.521 L 364.232 331.927 L 366.219 332.575" fill="#fff"/><path d="M 432.137 277.501 L 432.137 296.083 L 434.125 293.937 L 434.125 276.858 L 432.137 277.501" fill="#fff"/><path d="M 425.346 279.704 L 425.346 303.403 L 427.34 301.259 L 427.34 279.06 L 425.346 279.704" fill="#fff"/><path d="M 445.715 273.102 L 445.715 281.442 L 447.709 279.297 L 447.709 272.459 L 445.715 273.102" fill="#fff"/><path d="M 411.76 284.11 L 411.76 318.048 L 413.746 315.903 L 413.746 283.459 L 411.76 284.11" fill="#fff"/><path d="M 438.926 275.3 L 438.926 288.764 L 440.918 286.613 L 440.918 274.656 L 438.926 275.3" fill="#fff"/><path d="M 359.432 330.365 L 359.432 301.075 L 357.434 301.723 L 357.434 329.717 L 359.432 330.365" fill="#fff"/><path d="M 330.275 310.526 L 330.275 320.877 L 332.264 321.521 L 332.264 309.882 L 330.275 310.526" fill="#fff"/><path d="M 452.504 270.9 L 452.504 274.121 L 454.494 271.978 L 454.494 270.256 L 452.504 270.9" fill="#fff"/><path d="M 418.553 281.908 L 418.553 310.723 L 420.545 308.579 L 420.545 281.258 L 418.553 281.908" fill="#fff"/><path d="M 337.064 308.329 L 337.064 323.088 L 339.059 323.735 L 339.059 307.681 L 337.064 308.329" fill="#fff"/><path d="M 316.697 314.932 L 316.697 316.454 L 318.685 317.102 L 318.685 314.286 L 316.697 314.932" fill="#fff"/><path d="M 350.645 327.504 L 352.637 328.154 L 352.637 303.276 L 350.645 303.924 L 350.645 327.504" fill="#fff"/><path d="M 323.486 312.728 L 323.486 318.665 L 325.475 319.315 L 325.475 312.084 L 323.486 312.728" fill="#fff"/></svg>
